!!!!SEGMENT: pl-kk--kk-i-343--002_gorczycki-grzegorz-gerwazy--domine-ne-longe-faciam.krn
!!!cenid: 17xx:2155
!!!COM: Gorczycki, Grzegorz Gerwazy
!!!COM-rismID: pe30009207
!!!CDT: ~1666-1734/04/30
!!!CNT: Polish
!!!OTL: Domine ne longe faciam
!!!PDT:
!!!AGN: Sacred
!!!SMS-siglum: PL-Kk
!!!SMS-shelfmark: Kk.I.343
!!!SMS-shelfwork: 002 W
!!!SMS-variant:
!!!SMS-altvar:
!!!NIFC-rismSourceID: 1001145409
!!!NIFC-islandoraID: pl-kk:5719
!!!URL-pdf-islandora: https://repozytorium.nifc.pl/islandora/object/pl-kk%3A5719/datastream/PDF/view
!!!URL-scan: https://polish.musicsources.pl/pl/lokalizacje/galeria/rekopisy/5960 @EN{Scan on Polish Music Sources Website} @PL{Skany w portalu Dziedzictwo Muzyki Polskiej w otwartym dostępie}
!!!ONB-nifc: UWAGA: utwory w zbiorze: 1. Judica me Deus, 2. Domine ne longe faciam, 3. Deo gratias
!!!AIN: 1 alto 2 empty 1 tenor 1 vox
!!!key:
**kern	**fba	**text	**kern	**text	**kern	**text	**kern	**text	**kern	**text	**text
*part5	*	*part5	*part4	*part4	*part3	*part3	*part2	*part2	*part1	*part1	*part1
*	*	*	*group1	*	*group1	*	*group1	*	*group1	*	*
*staff5	*	*staff5	*staff4	*staff4	*staff3	*staff3	*staff2	*staff2	*staff1	*staff1	*staff1
*Iempty	*	*	*Iempty	*	*Itenor	*	*Ialto	*	*Ivox	*	*
*I"Baſso Continuo pro Org	*	*	*I"Baſso.	*	*I"Tenore.	*	*I"Alto	*	*I"Canto.	*	*
*mI"Organo	*	*	*mI"Bass	*	*mI"Tenor	*	*	*	*mI"Sopran	*	*
*I'org	*	*	*I'B	*	*I'T	*	*I'A	*	*I'S	*	*
*clefF4	*	*	*clefF4	*	*clefC4	*	*clefC3	*	*clefC1	*	*
*	*	*	*	*	*mclefGv2	*	*mclefG2	*	*mclefG2	*	*
*k[]	*	*	*k[]	*	*k[]	*	*k[]	*	*k[]	*	*
*C:	*	*	*C:	*	*C:	*	*C:	*	*C:	*	*
*M2/1	*	*	*M2/1	*	*M2/1	*	*M2/1	*	*M2/1	*	*
*met(C|)	*	*	*met(C|)	*	*met(C|)	*	*met(C)	*	*met(C|)	*	*
*mmet(C|)	*	*	*mmet(C|)	*	*mmet(C|)	*	*mmet(C|)	*	*mmet(C|)	*	*
*>[A,B,C,A]	*	*	*>[A,B,C,A]	*	*>[A,B,C,A]	*	*>[A,B,C,A]	*	*>[A,B,C,A]	*	*
=1-	=1-	=1-	=1-	=1-	=1-	=1-	=1-	=1-	=1-	=1-	=1-
*>A	*	*	*>A	*	*>A	*	*>A	*	*>A	*	*
!LO:TX:b:t=Domine:mod=	!	!	!LO:TX:t=P:problem=kreska pseudotaktowa	!	!	!	!	!	!	!	!
!LO:TX:a:t=Introitus pro D(omi)nica palmarum.:mod=	!	!	!LO:TX:a:t=Introitus pro \nDo(mi)nica Palmarum.:mod=	!	!LO:TX:a:t=Pro D(omi)nica Palmarum. \nIntroitus:mod=	!	!LO:TX:a:t=Pro D(omi)nica Palmarum:mod=	!	!LO:TX:a:t=Pro D(omi)nica Palmarum.:mod=	!	!
1GG	.	.	1G	Do-	1B	Do-	1d	Do-	1.g	Do-	.
!LO:TX:t=P:problem=kreska pseudotaktowa	!	!	!LO:TX:t=P:problem=kreska pseudotaktowa	!	!	!	!LO:TX:t=P:problem=kreska pseudotaktowa	!	!	!	!
1C	.	.	1C	-mi-	1c	.	1e	.	.	.	.
.	.	.	.	.	.	.	.	.	2g/	-mi-	.
=2-	=2-	=2-	=2-	=2-	=2-	=2-	=2-	=2-	=2-	=2-	=2-
*	*	*	*	*	*2\right	*	*2\right	*	*	*	*
!	!	!	!	!	!	!	!	!	!LO:TX:t=P:problem=kreska pseudotaktowa	!	!
1.G	.	.	1.G	-ne	2B\	.	2d\	.	1g	-ne	.
.	.	.	.	.	1d	.	2.g\	.	.	.	.
.	.	.	.	.	.	.	.	.	2r	.	.
.	.	.	.	.	.	.	4d\	.	.	.	.
*2\right	*	*	*2\right	*	*	*	*	*	*	*	*
!	!	!	!LO:TX:t=P:problem=kreska pseudotaktowa	!	!	!	!	!	!	!	!
2G\	.	.	2G\	ne	2B\	.	1g\	.	2g/	nè	.
=3-	=3-	=3-	=3-	=3-	=3-	=3-	=3-	=3-	=3-	=3-	=3-
*	*	*	*	*	*	*	*	*	*2\right	*	*
1D	4	.	2D\	lon-	2A/	.	.	.	2.a\	lon-	.
!	!	!	!	!LO:MO:mod=-ge	!	!	!	!	!	!	!
.	#	.	2D\	-gĕ	2A/	-mi-	2f#X\	-mi-	.	.	.
.	.	.	.	.	.	.	.	.	4b\	-ge	.
!	!	!	!	!	!	!	!LO:TX:t=P:problem=kreska pseudotaktowa	!	!	!	!
2.E\	6	.	2.E\	.	1G	-ne	1g	-ne	1cc	fa-	.
!LO:TX:t=P:problem=kreska pseudotaktowa	!	!	!LO:TX:t=P:problem=kreska pseudotaktowa	!	!	!	!	!	!	!	!
4F#X\	.	.	4F#X\	.	.	.	.	.	.	.	.
!	!	!	!	!	!LO:LB:g=original	!	!	!	!	!	!
=4-	=4-	=4-	=4-	=4-	=4-	=4-	=4-	=4-	=4-	=4-	=4-
4G\	.	.	4G\	fa-	0r	.	2r	.	1b	.	.
4D\	.	.	4D\	.	.	.	.	.	.	.	.
1G	5 3	.	1G	.	.	.	2d\	ne	.	.	.
.	6 4	.	.	.	.	.	2e\	lon-	2a\	.	.
!LO:TX:t=P:problem=kreska pseudotaktowa	!	!	!LO:TX:t=P:problem=kreska pseudotaktowa	!	!	!	!LO:TX:t=P:problem=kreska pseudotaktowa	!	!	!	!
2F#X\	6	.	2F#X\	.	.	.	2f#X\	-ge	1dd\	.	.
=5-	=5-	=5-	=5-	=5-	=5-	=5-	=5-	=5-	=5-	=5-	=5-
1E	7	.	2.E\	.	2r	.	4g\	fa-	.	.	.
.	6\	.	.	.	.	.	4d\	.	.	.	.
!	!	!	!	!	!	!	!	!	!LO:TX:t=P:problem=kreska pseudotaktowa	!	!
.	.	.	.	.	2G/	ne	1g	.	2cc#X\	-ci-	.
.	.	.	4E\	-ci-	.	.	.	.	.	.	.
!	!	!	!	!	!	!	!	!	!LO:TX:t=P:problem=wykreślony fragment, zapis niejasny	!	!
1D	4	.	2D\	-as	2A/	lon-	.	.	1dd	-as	.
!	!	!	!LO:TX:t=P:problem=kreska pseudotaktowa	!	!	!	!LO:TX:t=P:problem=kreska pseudotaktowa	!	!	!	!
.	#	.	2D\	ne	2B\	-ge	2f#X\	.	.	.	.
!	!	!	!LO:LB:g=original	!	!	!	!	!	!	!	!
=6-	=6-	=6-	=6-	=6-	=6-	=6-	=6-	=6-	=6-	=6-	=6-
!	!	!	!	!	!	!	!	!	!LO:TX:a:t=1:mod=	!	!
2C/	.	.	2C/	lon-	2c\	fa-	2e\	.	1r	.	.
!	!	!	!	!	!	!	!	!	!LO:TX:a:t=P:problem=wykreślone takty	!	!
2GG/	.	.	2GG/	-ge	2B\	.	1d	-ci-	.	.	.
1D	#	.	2.D\	fa-	2.A/	.	.	.	2r	.	.
!	!	!	!	!	!	!	!	!	!LO:TX:b:t=P:problem=# below	!	!
.	.	.	.	.	.	.	2d\	.	1f#X/	au-	.
!	!	!	!LO:TX:t=P:problem=kreska pseudotaktowa	!	!LO:TX:t=P:problem=kreska pseudotaktowa	!	!	!	!	!	!
.	.	.	4D\	-ci-	4A/	-ci-	.	.	.	.	.
!LO:LB:g=original	!	!	!	!	!	!	!	!	!	!	!
=7-	=7-	=7-	=7-	=7-	=7-	=7-	=7-	=7-	=7-	=7-	=7-
2D/	#	.	2D/	-as	2A/	-as	1d	-as	.	.	.
!	!	!	!	!	!	!	!	!	!LO:LB:g=original	!	!
2BB/	6	.	2BB/	au-	2B\	au-	.	.	2.b\	-xi-	.
!LO:TX:t=P:problem=kreska pseudotaktowa	!	!	!	!	!	!	!LO:LB:g=original	!	!	!	!
1E	5	.	2.E\	-xi-	2.B\	-xi-	2rB	.	.	.	.
.	.	.	.	.	.	.	.	.	4b\	-li-	.
!	!	!	!	!	!	!	!LO:TX:t=P:problem=kreska pseudotaktowa	!	!LO:TX:t=P:problem=kreska pseudotaktowa	!	!
.	.	.	.	.	.	.	2B/	au-	2g/	-um	.
!	!	!	!LO:TX:t=P:problem=kreska pseudotaktowa	!	!	!	!	!	!	!	!
.	.	.	4E\	-li-	4B\	-li-	.	.	.	.	.
=8-	=8-	=8-	=8-	=8-	=8-	=8-	=8-	=8-	=8-	=8-	=8-
1C	.	.	1C	-um	2c\	-um	2.e\	-xi-	4ccny\	tu-	.
.	.	.	.	.	.	.	.	.	4cc\	-um	.
.	.	.	.	.	1c	tu-	.	.	2cc\	â	.
.	.	.	.	.	.	.	4e\	-li-	.	.	.
!	!	!	!	!	!	!	!	!	!LO:TX:a:t=P:global:problem=rozdzielacz słów	!	!
2D/	7 #	.	2D\	tu-	.	.	2d\	-um	2a,<\	me	.
!	!	!	!LO:TX:t=P:problem=kreska pseudotaktowa	!	!LO:TX:t=P:problem=kreska pseudotaktowa	!	!	!	!	!	!
2G\	.	.	2G\	-um	2B\	-um	4d\	tu-	1g\	ad	.
.	.	.	.	.	.	.	4g\	-um	.	.	.
=9-	=9-	=9-	=9-	=9-	=9-	=9-	=9-	=9-	=9-	=9-	=9-
!	!	!	!LO:TX:t=P:problem=kreska pseudotaktowa	!	!	!	!	!	!	!	!
!	!	!	!	!	!	!	!	!LO:MO:mod=a	!	!	!
1D	4	.	1D	a	(2.d\	a	(2g\	à	.	.	.
!	!	!	!	!	!	!	!	!	!LO:TX:t=P:problem=kreska pseudotaktowa	!	!
.	#	.	.	.	.	.	2f#X\)	.	2a\	de-	.
.	.	.	.	.	4c\)	.	.	.	.	.	.
2GG/	.	.	2GG/	me	2B\	me	2g\	me	1b	-fen-	.
!LO:TX:t=P:problem=kreska pseudotaktowa	!	!	!	!	!	!	!	!	!	!	!
2G\	.	.	0r	.	1G/	ad	1g\	ad	.	.	.
.	5	.	.	.	.	.	.	.	.	.	.
=10-	=10-	=10-	=10-	=10-	=10-	=10-	=10-	=10-	=10-	=10-	=10-
2G\	.	.	.	.	.	.	.	.	2g/	-si-	.
2A\	#6r	.	.	.	2A/	de-	2f#X\	de-	2cc\	-o-	.
2B\	6	.	.	.	2B\	-fen-	2g\	-fen-	1b	-nem	.
!LO:TX:t=P:problem=kreska pseudotaktowa	!	!	!LO:N:vis=2	!	!	!	!LO:TX:t=P:problem=kreska pseudotaktowa	!	!	!	!
2G\	.	.	1r	.	2G/	-si-	2g\	-ſi-	.	.	.
!	!	!	!	!	!LO:LB:g=original	!	!	!	!	!	!
=11-	=11-	=11-	=11-	=11-	=11-	=11-	=11-	=11-	=11-	=11-	=11-
4c\	.	.	.	.	4c\	-o-	2.g\	-o-	2.ee\	me-	.
4G\	.	.	.	.	4G/	.	.	.	.	.	.
1C	.	.	1C	ad	1c	-nem	.	.	.	.	.
!	!	!	!	!	!	!	!LO:N:acc=-	!	!	!	!
.	.	.	.	.	.	.	4fn\	.	4dd\	.	.
.	.	.	.	.	.	.	2e\	.	2cc\	.	.
!LO:TX:t=P:problem=kreska pseudotaktowa	!	!	!	!	!LO:TX:t=P:problem=kreska pseudotaktowa	!	!	!	!	!	!
2D\	6	.	2D\	de-	2B\	me-	2d\	-nem	2ff\	.	.
=12-	=12-	=12-	=12-	=12-	=12-	=12-	=12-	=12-	=12-	=12-	=12-
2E\	6	.	2E\	-fen-	2.c\	.	1g	me-	2.ee\	.	.
!	!	!	!LO:TX:t=P:problem=kreska pseudotaktowa	!	!	!	!	!	!	!	!
2C/	.	.	2C/	-si-	.	.	.	.	.	.	.
.	.	.	.	.	4B\	.	.	.	4dd\	.	.
!	!	!	!	!	!	!	!LO:TX:t=P:problem=kreska pseudotaktowa	!	!	!	!
4Fny\	.	.	4Fny\	-o-	1A	.	1c	-um	1cc	.	.
4C/	.	.	4C/	.	.	.	.	.	.	.	.
!LO:LB:g=original	!	!	!LO:LB:g=original	!	!	!	!	!	!	!	!
1F\	4 2	.	1F\	.	.	.	.	.	.	.	.
=13-	=13-	=13-	=13-	=13-	=13-	=13-	=13-	=13-	=13-	=13-	=13-
.	.	.	.	.	2G/	-am	2r	.	2b\	.	.
2E\	6	.	2E\	-nem	1c	a-	1c	ad	2cc\	.	.
!LO:TX:t=P:problem=kreska pseudotaktowa	!	!	!	!	!	!	!	!	!	!	!
1D	7	.	2D\	me-	.	.	.	.	1dd	.	.
!	!	!	!LO:TX:t=P:problem=kreska pseudotaktowa	!	!	!	!	!	!	!	!
.	6	.	2D\	-am	2B\	.	2d\	de	.	.	.
!	!	!	!	!	!	!	!LO:LB:g=original	!	!	!	!
=14-	=14-	=14-	=14-	=14-	=14-	=14-	=14-	=14-	=14-	=14-	=14-
1C	5	.	1C/	a-	2c\	.	2e\	fen-	4g,</	-am	.
.	.	.	.	.	.	.	.	.	4g/	a-	.
.	6	.	.	.	2A/	.	2c\	-ſi-	1a	.	.
1D	5	.	1D	.	2d\	.	4f\	-o-	.	.	.
.	.	.	.	.	.	.	4c\	.	.	.	.
.	6	.	.	.	2B\	.	1f\	.	1b\	.	.
=15-	=15-	=15-	=15-	=15-	=15-	=15-	=15-	=15-	=15-	=15-	=15-
!LO:TX:t=P:problem=kreska pseudotaktowa	!	!	!LO:TX:t=P:problem=kreska pseudotaktowa	!	!	!	!	!	!	!	!
1E	9 5	.	1E\	.	2e\	.	.	.	.	.	.
!	!	!	!	!	!	!	!LO:TX:t=P:problem=kreska pseudotaktowa	!	!LO:TX:t=P:problem=kreska pseudotaktowa	!	!
.	8 6	.	.	.	2c\	.	2e\	-nem	2cc\	.	.
2F\	6	.	2F\	.	1f	.	(4d\	me-	2a\	.	.
.	.	.	.	.	.	.	4e\)	.	.	.	.
!	!	!	!	!	!	!	!	!	!LO:LB:g=original	!	!
2D/	.	.	2D\	.	.	.	(4f\	-am	1dd\	.	.
.	.	.	.	.	.	.	4g\)	.	.	.	.
=16-	=16-	=16-	=16-	=16-	=16-	=16-	=16-	=16-	=16-	=16-	=16-
!LO:TX:t=P:problem=kreska pseudotaktowa	!	!	!	!	!	!	!	!	!	!	!
1AA	4	.	2AA/	-spi-	2.e\	-spi-	2.a\	aſ-	.	.	.
!	!	!	!LO:TX:t=P:problem=kreska pseudotaktowa	!	!	!	!	!	!LO:TX:t=P:problem=kreska pseudotaktowa	!	!
.	#	.	2AA/	-ce	.	.	.	.	2cc#X\	-spi-	.
.	.	.	.	.	4e\	-ce	4a\	-pi-	.	.	.
!	!	!	!LO:TX:a:t=P:problem=rozdzielacz słów	!	!	!	!	!	!	!	!
2D/	.	.	2D,<\	.	1d	.	2f#X\	-ce	2dd\	-ce	.
!	!	!	!	!	!	!	!LO:TX:t=P:problem=kreska pseudotaktowa	!	!	!	!
1G\	4 2	.	2.G\	'li-	.	.	2r	.	2b\	de	.
=17-	=17-	=17-	=17-	=17-	=17-	=17-	=17-	=17-	=17-	=17-	=17-
.	.	.	.	.	1re	.	2rA	.	2ccn\	o-	.
.	.	.	4G\	-be-	.	.	.	.	.	.	.
!LO:TX:t=P:problem=kreska pseudotaktowa	!	!	!LO:TX:t=P:problem=kreska pseudotaktowa	!	!	!	!	!	!	!	!
2F#X\	.	.	2F#X\	-ra	.	.	2.d\	li-	4a\	-re	.
.	.	.	.	.	.	.	.	.	4a\	le-	.
2G\	.	.	2G\	me	2B\	de	.	.	4b\	-o-	.
.	.	.	.	.	.	.	4d\	-be-	4g/	-nis	.
!	!	!	!LO:TX:t=P:problem=kreska pseudotaktowa	!	!	!	!	!	!	!	!
2E\	6	.	2E\	de	2c\	o-	(1c\	-ra	2.cc\	li-	.
!	!	!	!LO:LB:g=original	!	!	!	!	!	!	!	!
=18-	=18-	=18-	=18-	=18-	=18-	=18-	=18-	=18-	=18-	=18-	=18-
!LO:N:acc=-	!	!	!	!	!	!	!	!	!	!	!
2Fn\	.	.	2F\	o-	4A/	-re	.	.	.	.	.
.	.	.	.	.	4A/	le-	.	.	4cc\	-be-	.
!	!	!	!	!	!LO:LB:g=original	!	!LO:TX:t=P:problem=kreska pseudotaktowa	!	!	!	!
2D/	6	.	4D\	-re	2B\	-o-	2d\)	.	2b\	-ra	.
.	.	.	4D\	le-	.	.	.	.	.	.	.
!LO:LB:g=original	!	!	!	!	!	!	!	!	!	!	!
2E\	6	.	2E\	-o-	2G/	.	2G/	me	2cc\	me	.
!	!	!	!LO:TX:t=P:problem=kreska pseudotaktowa	!	!	!	!	!	!	!	!
2C/	.	.	2C/	.	2c\	.	2.g\	li-	2ee\	de-	.
=19-	=19-	=19-	=19-	=19-	=19-	=19-	=19-	=19-	=19-	=19-	=19-
!	!	!	!	!	!LO:TX:t=P:problem=kreska pseudotaktowa	!	!	!	!	!	!
1D	4	.	1D\	.	1A	.	.	.	4dd\	-o-	.
.	.	.	.	.	.	.	4g\	-be-	4ee\	.	.
!	!	!	!LO:TX:t=P:problem=kreska pseudotaktowa	!	!	!	!	!	!	!	!
.	#	.	.	.	.	.	2f#X\	-ra	4dd\	.	.
.	.	.	.	.	.	.	.	.	4cc\	.	.
2GG/	.	.	2GG/	-nis	2B\	-nis	2g\	me	2b\	.	.
1c\	4 2	.	2rC	.	2.c\	li-	2e\	de	4g/	-re	.
.	.	.	.	.	.	.	.	.	4cc\	le-	.
!	!	!	!	!	!	!	!LO:LB:g=original	!	!	!	!
=20-	=20-	=20-	=20-	=20-	=20-	=20-	=20-	=20-	=20-	=20-	=20-
!	!	!	!LO:TX:t=P:problem=kreska pseudotaktowa	!	!	!	!LO:N:acc=-	!	!LO:TX:t=P:problem=kreska pseudotaktowa	!	!
.	.	.	1rD	.	.	.	2fn\	o-	1dd	-o-	.
.	.	.	.	.	4c\	-be-	.	.	.	.	.
!LO:TX:t=P:problem=kreska pseudotaktowa	!	!	!	!	!	!	!	!	!	!	!
2B\	6	.	.	.	2B\	-ra	4d\	-re	.	.	.
!	!	!	!	!	!	!	!LO:TX:t=P:problem=kreska pseudotaktowa	!	!	!	!
.	.	.	.	.	.	.	4d\	le-	.	.	.
2c\	.	et	2r	.	2c\	me	2e\	-o-	1g	-nis	.
!	!	!	!	!	!LO:TX:t=P:problem=kreska pseudotaktowa	!	!	!	!	!	!
1G\	.	â	1G\	et	2r	.	1d\	.	.	.	.
=21-	=21-	=21-	=21-	=21-	=21-	=21-	=21-	=21-	=21-	=21-	=21-
.	.	.	.	.	2r	.	.	.	1r	.	.
!LO:TX:t=P:problem=kreska pseudotaktowa	!	!	!LO:TX:t=P:problem=kreska pseudotaktowa	!	!	!	!	!	!	!	!
2G\	.	cor-	2G\	a	1d	et	1g	.	.	.	.
4D\	4	-ni-	4D\	cor-	.	.	.	.	2rcc	.	.
4E\	3	-bus	4E\	.	.	.	.	.	.	.	.
4F#X\	.	.	4F#X\	.	2d\	â	2f#X\	.	1dd\	et	.
4D\	.	.	4D\	.	.	.	.	.	.	.	.
=22-	=22-	=22-	=22-	=22-	=22-	=22-	=22-	=22-	=22-	=22-	=22-
!LO:TX:t=P:problem=kreska pseudotaktowa	!	!	!	!	!	!	!	!	!	!	!
1G	.	.	2.G\	.	4G/	cor-	1g	-nis	.	.	.
.	.	.	.	.	4A/	.	.	.	.	.	.
!	!	!	!	!	!	!	!	!	!LO:TX:t=P:problem=kreska pseudotaktowa	!	!
.	.	.	.	.	4B\	.	.	.	2dd\	â	.
!	!	!	!LO:TX:t=P:problem=kreska pseudotaktowa	!	!	!	!	!	!	!	!
.	.	.	4G\	-ni-	4c\	.	.	.	.	.	.
!	!	!	!LO:LB:g=original	!	!	!	!	!	!LO:LB:g=original	!	!
!	!	!	!	!LO:MO:mod=-bus	!	!	!	!	!	!	!
2G\	.	.	2G\	-b(us)	2.d\	.	2rf	.	4g\	cor-	.
.	.	.	.	.	.	.	.	.	4a\	.	.
1GG/	.	.	1GG/	u-	.	.	1g\	et	4b\	.	.
.	.	.	.	.	4d\	-ni-	.	.	4cc\	.	.
=23-	=23-	=23-	=23-	=23-	=23-	=23-	=23-	=23-	=23-	=23-	=23-
.	.	.	.	.	2B\	-bus	.	.	2.dd\	.	.
!LO:TX:t=P:problem=kreska pseudotaktowa	!	!	!	!	!	!	!LO:TX:t=P:problem=kreska pseudotaktowa	!	!	!	!
2BB/	6	.	2BB/	-ni	1G	u-	2g\	a	.	.	.
!	!	!	!	!	!	!	!	!	!LO:TX:t=P:problem=kreska pseudotaktowa	!	!
.	.	.	.	.	.	.	.	.	4dd\	-ni-	.
2C/	.	.	2C/	cor-	.	.	4c\	cor-	2g/	-bus	.
.	.	.	.	.	.	.	4d\	.	.	.	.
!	!	!	!LO:TX:t=P:problem=kreska pseudotaktowa	!	!	!	!	!	!	!	!
2AA/	.	.	2AA/	.	2c\	-ni-	4e\	.	2a\	u-	.
.	.	.	.	.	.	.	4c\	.	.	.	.
=24-	=24-	=24-	=24-	=24-	=24-	=24-	=24-	=24-	=24-	=24-	=24-
2D/	#	.	2D/	.	2A\	-cor-	2.d\	.	2f#X/	-ni-	.
!	!	!	!LO:TX:t=P:problem=kreska pseudotaktowa	!	!	!	!	!	!	!	!
2BB/	.	.	2BB/	.	2d\	.	.	.	2b\	-cor-	.
.	.	.	.	.	.	.	4d\	-ni-	.	.	.
!LO:PB:g=original	!	!	!	!	!LO:LB:g=original	!	!	!	!	!	!
2.E\	.	.	2.E\	.	2B\	.	2e\	-bus	1g	.	.
.	.	.	.	.	2.e\	.	1g\	U-	.	.	.
4D/	.	.	4D\	.	.	.	.	.	.	.	.
=25-	=25-	=25-	=25-	=25-	=25-	=25-	=25-	=25-	=25-	=25-	=25-
2C/	.	.	2C/	.	.	.	.	.	2cc\	.	.
.	.	.	.	.	4e\	-ni-	.	.	.	.	.
!	!	!	!LO:TX:t=P:problem=kreska pseudotaktowa	!	!	!	!LO:TX:t=P:problem=kreska pseudotaktowa	!	!	!	!
2BB/	6	.	2AA/	.	2d\	-um	2g\	-ni	2g/	.	.
!LO:TX:t=P:problem=kreska pseudotaktowa	!	!	!	!	!	!	!	!	!	!	!
1AA	7	.	2.AA/	.	2rc	.	2g\	cor-	2.a\	.	.
.	6	.	.	.	2c\	hu-	2f#X\	.	.	.	.
!	!	!	!LO:TX:t=P:problem=kreska pseudotaktowa	!	!	!	!	!	!LO:TX:t=P:problem=kreska pseudotaktowa	!	!
.	.	.	4AA/	-ni-	.	.	.	.	4a\	-ni-	.
=26-	=26-	=26-	=26-	=26-	=26-	=26-	=26-	=26-	=26-	=26-	=26-
2GG/	.	.	2GG/	-um	2B\	-mi-	2.g\	-ni-	2b\	-um	.
!	!	!	!	!	!LO:TX:t=P:problem=kreska pseudotaktowa	!	!	!	!	!	!
2G\	.	.	2G\	hu-	2G/	-li-	.	.	2b\	hu-	.
.	.	.	.	.	.	.	4g\	-um	.	.	.
2F#X\	.	.	2F#X\	-mi-	2A/	-ta-	1d	.	2a\	-mi-	.
!LO:TX:t=P:problem=kreska pseudotaktowa	!	!	!LO:TX:t=P:problem=kreska pseudotaktowa	!	!	!	!	!	!LO:TX:t=P:problem=kreska pseudotaktowa	!	!
2D/	.	.	2D\	-li-	1d\	.	.	.	2f#X/	-li-	.
!	!	!	!LO:LB:g=original	!	!	!	!LO:LB:g=original	!	!	!	!
=27-	=27-	=27-	=27-	=27-	=27-	=27-	=27-	=27-	=27-	=27-	=27-
1E	7	.	1E\	-ta-	.	.	2r	.	1g	-ta-	.
.	6	.	.	.	2c#X\	.	2g\	hu-	.	.	.
2D/	#	.	2D\	-tem	2d\	-tem	2f#X\	-mi-	2d/	-tem	.
!	!	!	!	!	!	!	!LO:TX:t=P:problem=kreska pseudotaktowa	!	!LO:LB:g=original	!	!
1BB/	6	.	1AA/	me-	1d\	me-	2d\	-li-	4dd\	me-	.
.	.	.	.	.	.	.	.	.	4cc\	.	.
=28-	=28-	=28-	=28-	=28-	=28-	=28-	=28-	=28-	=28-	=28-	=28-
.	.	.	.	.	.	.	4g\	-ta-	2b\	.	.
.	.	.	.	.	.	.	4d\	-te	.	.	.
!	!	!	!LO:TX:t=P:problem=kreska pseudotaktowa	!	!	!	!	!	!LO:TX:t=P:problem=kreska pseudotaktowa	!	!
2C/	.	.	2C/	.	2.cny\	.	1g	me-	2ee\	.	.
!LO:TX:t=P:problem=kreska pseudotaktowa	!	!	!	!	!	!	!	!	!	!	!
1D	7 4	.	1D	.	.	.	.	.	2.dd\	.	.
.	6 #3	.	.	.	4B\	.	.	.	.	.	.
!	!	!	!	!	!	!	!LO:TX:t=P:problem=kreska pseudotaktowa	!	!	!	!
.	5	.	.	.	2A/	.	2f#X\	.	.	.	.
.	.	.	.	.	.	.	.	.	4cc\	.	.
=29-	=29-	=29-	=29-	=29-	=29-	=29-	=29-	=29-	=29-	=29-	=29-
2GG/	.	.	2GG/	-am	2B\	-am	2g\	-am	2b\	-am	.
!	!	!	!LO:TX:t=P:problem=kreska pseudotaktowa	!	!LO:TX:t=P:problem=kreska pseudotaktowa	!	!	!	!LO:TX:t=P:problem=kreska pseudotaktowa	!	!
2BB/	.	.	2BB/	hu-	2B\	hu-	2d\	hu-	2g/	hu-	.
2C/	.	.	2C/	-mi-	2e\	-mi-	2e\	-mi-	2g/	-mi-	.
2GG/	.	.	2GG/	-li-	2B\	-li-	2d\	-li-	2g/	-li-	.
=30-	=30-	=30-	=30-	=30-	=30-	=30-	=30-	=30-	=30-	=30-	=30-
2C/	.	.	2C/	-ta-	2c\	-ta-	2e\	-ta-	2g/	-ta-	.
!	!	!	!LO:TX:t=P:problem=kreska pseudotaktowa	!	!LO:LB:g=original	!	!	!	!	!	!
2BB/	.	.	2BB/	-tem	2G/	-tem	2d\	-tem	2g/	-tem	.
!LO:LB:g=original	!	!	!LO:TX:t=P:problem=kreska pseudotaktowa	!	!	!	!	!	!	!	!
1C	.	.	1C	me-	1c	me-	1e	me-	1g	me-	.
=31-	=31-	=31-	=31-	=31-	=31-	=31-	=31-	=31-	=31-	=31-	=31-
!	!	!	!	!	!	!	!LO:MO:mod=0d;	!	!LO:MO:mod=0g;	!	!
0GG;	.	.	0GG;	-am	0B;<	-am.	0dl;;	-am	0g;;	-am.	.
!	!	!	!LO:TX:b:t=Volti:mod=	!	!	!	!	!	!	!	!
!	!	!	!LO:TX:a:t=Vers(us) Deus Deus meus\nRespice in me:mod=	!	!	!	!	!	!	!	!
.	.	.	.	.	.	.	.	.	.	.	.
*clefC4	*	*	*	*	*	*	*	*	*	*	*
=||	=||	=||	=||	=||	=||	=||	=||	=||	=||	=||	=||
*>B	*	*	*>B	*	*>B	*	*>B	*	*>B	*	*
!LO:TX:a:t=Vers(us):mod=	!	!	!	!	!LO:TX:a:t=Versus:mod=	!	!LO:TX:a:t=Verſus:mod=	!	!LO:TX:a:t=Vers(us) Deus\nDeus meus.:mod=	!	!
!	!	!	!	!	!LO:TX:a:t=Intonat&colon;:mod=	!	!	!	!	!	!
G	.	De-	.	.	G	De-	G	De-	.	.	.
A	.	-us	.	.	A	-us	A	-us	.	.	.
*lig	*	*	*	*	*lig	*	*lig	*	*	*	*
G	.	De-	.	.	G	De-	G	De-	.	.	.
c	.	.	.	.	c	.	c	.	.	.	.
*Xlig	*	*	*	*	*Xlig	*	*Xlig	*	*	*	*
c	.	-us	.	.	c	-us	c	-us	.	.	.
!	!	!	!	!	!	!	!LO:LB:g=original	!	!	!	!
c	.	me-	.	.	c	me-	c	me-	.	.	.
*lig	*	*	*	*	*lig	*	*lig	*	*	*	*
c	.	-us	.	.	c	-us	c	-us	.	.	.
B	.	.	.	.	B	.	B	.	.	.	.
*Xlig	*	*	*	*	*Xlig	*	*Xlig	*	*	*	*
*lig	*	*	*	*	*lig	*	*lig	*	*	*	*
c	.	re-	.	.	c	re-	c	re-	.	.	.
d	.	.	.	.	d	.	d	.	.	.	.
*Xlig	*	*	*	*	*Xlig	*	*Xlig	*	*	*	*
d	.	-spi-	.	.	d	-spi-	d	-ſpi-	.	.	.
c	.	-ce	.	.	c	-ce	c	-ce	.	.	.
!LO:LB:g=original	!	!	!	!	!	!	!	!	!	!	!
d	.	in	.	.	d	in	d	in	.	.	.
c	.	me	.	.	c	me	c	me	.	.	.
*clefF4	*	*	*	*	*	*	*	*	*	*	*
!	!	!	!	!	!LO:PB:g=original	!	!	!	!	!	!
=32||	=32||	=32||	=32||	=32||	=32||	=32||	=32||	=32||	=32||	=32||	=32||
*>C	*	*	*>C	*	*>C	*	*>C	*	*>C	*	*
*M2/1	*	*	*M2/1	*	*M2/1	*	*M2/1	*	*M2/1	*	*
*met(C|)	*	*	*met(C)	*	*met(C|)	*	*met(C)	*	*met(C|)	*	*
*mmet(C|)	*	*	*mmet(C|)	*	*mmet(C|)	*	*mmet(C|)	*	*mmet(C|)	*	*
*	*	*	*	*	*lig	*	*	*	*	*	*
!LO:TX:b:t=Qvare me dereliquisti:mod=	!	!	!	!	!	!	!	!	!	!	!
!LO:TX:t=P:problem=kreska pseudotaktowa	!	!	!LO:TX:t=P:problem=kreska pseudotaktowa	!	!	!	!LO:TX:a:t=3:mod=	!	!	!	!
1C 1c	.	.	1r	.	(1c	Qua-	0r	.	0r	.	.
.	.	.	.	.	.	.	.	.	.	.	.
!	!	!	!LO:TX:t=P:problem=kreska pseudotaktowa	!	!	!	!	!	!	!	!
!	!	!	!	!LO:MO:mod=Qua-	!	!	!	!	!	!	!
1F	.	.	1F	Qva-	1A)	.	.	.	.	.	.
*	*	*	*	*	*Xlig	*	*	*	*	*	*
=33-	=33-	=33-	=33-	=33-	=33-	=33-	=33-	=33-	=33-	=33-	=33-
!	!	!	!	!	!LO:TX:a:t=P:problem=rozdzielacz słów	!	!	!	!	!	!
2E\	.	.	2E\	-re	1c,<	-re,	1r	.	1cc	Qua-	.
!LO:TX:t=P:problem=kreska pseudotaktowa	!	!	!LO:TX:t=P:problem=kreska pseudotaktowa	!	!	!	!	!	!	!	!
2C/	.	.	2C/	me	.	.	.	.	.	.	.
!	!	!	!	!	!LO:TX:t=P:problem=kreska pseudotaktowa	!	!	!	!	!	!
4F\	.	.	4F\	de	1c	me	1f	Qua-	2a\	-re	.
4E\	.	.	4E\	.	.	.	.	.	.	.	.
4F\	.	.	4F\	.	.	.	.	.	4f/	me	.
!	!	!	!LO:TX:t=P:problem=kreska pseudotaktowa	!	!	!	!	!	!	!	!
4G\	.	.	4G\	.	.	.	.	.	4cc\	de	.
!	!	!	!	!	!	!	!	!	!LO:LB:g=original	!	!
=34-	=34-	=34-	=34-	=34-	=34-	=34-	=34-	=34-	=34-	=34-	=34-
4A\	.	.	4A\	re-	1c	de	2e\	-re	2cc\	re-	.
4G\	.	.	4G\	.	.	.	.	.	.	.	.
!	!	!	!	!	!	!	!LO:TX:t=P:problem=kreska pseudotaktowa	!	!	!	!
4A\	.	.	4A\	-li-	.	.	2c/	.	2b\	-li-	.
!LO:TX:t=P:problem=kreska pseudotaktowa	!	!	!LO:TX:t=P:problem=kreska pseudotaktowa	!	!	!	!	!	!	!	!
4B-X\	.	.	4B-X\	.	.	.	.	.	.	.	.
!	!	!	!	!	!	!	!LO:TX:t=P:problem=kreska pseudotaktowa	!	!	!	!
!	!	!	!	!LO:MO:mod=-qui-	!	!	!	!	!	!	!
2c\	.	.	(2c\	-qvi-	2c\	re-	1e	me	1g	-qui-	.
2C/	.	.	2C/)	.	2c\	-li-	.	.	.	.	.
=35-	=35-	=35-	=35-	=35-	=35-	=35-	=35-	=35-	=35-	=35-	=35-
2FF/	.	.	2F\	-sti	1c	-qui-	(4f\	de	1a	-sti	.
.	.	.	.	.	.	.	4e\)	.	.	.	.
!	!	!	!LO:LB:g=original	!	!	!	!	!	!	!	!
1F	.	.	1F	lon-	.	.	(4f\	re-	.	.	.
!	!	!	!	!	!	!	!LO:TX:t=P:problem=kreska pseudotaktowa	!	!	!	!
.	.	.	.	.	.	.	4g\)	.	.	.	.
!	!	!	!	!	!LO:TX:t=P:problem=kreska pseudotaktowa	!	!	!	!	!	!
.	.	.	.	.	1c	-sti	2.a\	-li-	2r	.	.
!	!	!	!LO:TX:t=P:problem=kreska pseudotaktowa	!	!	!	!	!	!	!	!
2F\	.	.	2F\	-ge	.	.	.	.	1cc\	lon-	.
.	.	.	.	.	.	.	8g\L	-qui-	.	.	.
!	!	!	!	!	!	!	!LO:TX:t=P:problem=kreska pseudotaktowa	!	!	!	!
.	.	.	.	.	.	.	8f\J	.	.	.	.
!LO:LB:g=original	!	!	!	!	!	!	!	!	!	!	!
=36-	=36-	=36-	=36-	=36-	=36-	=36-	=36-	=36-	=36-	=36-	=36-
!	!	!	!	!	!	!	!LO:TX:t=P:problem=kreska pseudotaktowa	!	!	!	!
2E\	6	.	2E\	a	1c	lon-	1g	.	.	.	.
2E\	.	.	2E\	Sa-	.	.	.	.	2cc\	-ge	.
!	!	!	!	!	!LO:TX:t=P:problem=kreska pseudotaktowa	!	!	!	!	!	!
2F\	.	.	2F\	-lu-	1c	-gè	2f\	.	2a\	a	.
!LO:TX:t=P:problem=kreska pseudotaktowa	!	!	!LO:TX:t=P:problem=kreska pseudotaktowa	!	!	!	!LO:TX:t=P:problem=kreska pseudotaktowa	!	!	!	!
2C/	.	.	2C/	-te	.	.	2e\	-sti	2g/	sa-	.
=37-	=37-	=37-	=37-	=37-	=37-	=37-	=37-	=37-	=37-	=37-	=37-
!	!	!	!	!	!	!	!LO:TX:t=P:problem=kreska pseudotaktowa	!	!	!	!
4F\	.	.	4F\	me-	2c\	â	1f	.	2a\	-lu-	.
4G\	.	.	4G\	.	.	.	.	.	.	.	.
!	!	!	!	!	!	!	!	!	!LO:TX:t=P:problem=kreska pseudotaktowa	!	!
4A\	.	.	4A\	.	2c\	sa-	.	.	2f/	-te	.
!	!	!	!LO:TX:t=P:problem=kreska pseudotaktowa	!	!	!	!	!	!	!	!
4Bny\	.	.	4B-X\	.	.	.	.	.	.	.	.
4c\	.	.	4c\	.	2c\	-lu-	2rf	.	2.cc\	me-	.
4B\	.	.	4B-X\	.	.	.	.	.	.	.	.
4A\	6	.	4A\	.	2c\	-te	1f\	lon-	.	.	.
!LO:TX:t=P:problem=kreska pseudotaktowa	!	!	!LO:TX:t=P:problem=kreska pseudotaktowa	!	!	!	!	!	!	!	!
4G\	.	.	4G\	.	.	.	.	.	4b-X\	.	.
=38-	=38-	=38-	=38-	=38-	=38-	=38-	=38-	=38-	=38-	=38-	=38-
4F\	.	.	4F\	.	1c	me-	.	.	4a\	.	.
4E\	.	.	4E\	.	.	.	.	.	4b-X\	.	.
!	!	!	!	!	!	!	!LO:TX:t=P:problem=kreska pseudotaktowa	!	!	!	!
4F\	.	.	4F\	.	.	.	2f\	-ge	4a\	.	.
!	!	!	!LO:TX:t=P:problem=kreska pseudotaktowa	!	!	!	!	!	!	!	!
4C/	.	.	4C/	.	.	.	.	.	4g/	.	.
!	!	!	!LO:LB:g=original	!	!LO:TX:t=P:problem=kreska pseudotaktowa	!	!	!	!	!	!
2F\	.	.	2F\	-a	1c	-a	2a\	a	2f/	-a	.
!	!	!	!	!	!	!	!LO:TX:t=P:problem=kreska pseudotaktowa	!	!LO:TX:t=P:problem=kreska pseudotaktowa	!	!
1A\	.	.	1A\	ver-	.	.	2a\	ſa-	2r	.	.
!	!	!	!	!	!LO:LB:g=original	!	!LO:LB:g=original	!	!	!	!
=39-	=39-	=39-	=39-	=39-	=39-	=39-	=39-	=39-	=39-	=39-	=39-
.	.	.	.	.	2c\	ver-	2e\	-lu-	2r	.	.
!LO:TX:t=P:problem=kreska pseudotaktowa	!	!	!	!	!	!	!LO:TX:t=P:problem=kreska pseudotaktowa	!	!	!	!
!	!	!	!	!	!	!	!	!	!	!	!LO:MO:mod=.
2A\	.	.	2A\	-ba	2c\	-ba	2e\	-te	1cc	ver-	[[lon-
2E\	6	.	2E\	de-	2c\	de-	2.g\	me-	.	.	.
!	!	!	!LO:TX:t=P:problem=kreska pseudotaktowa	!	!	!	!	!	!	!	!LO:MO:mod=.
2F\	.	.	2F\	-li-	2c\	-li-	.	.	2a\	-ba	-ge]]
.	.	.	.	.	.	.	8f\L	.	.	.	.
!	!	!	!	!	!	!	!LO:TX:t=P:problem=kreska pseudotaktowa	!	!	!	!
.	.	.	.	.	.	.	8e\J	.	.	.	.
=40-	=40-	=40-	=40-	=40-	=40-	=40-	=40-	=40-	=40-	=40-	=40-
!	!	!	!	!	!	!	!	!	!LO:TX:b:t=P:problem=niewyraźny drugi tekst- skreślony	!	!
2.G\	.	.	2.G\	-cto-	1B	-cto-	2d\	-a	2bny\	de-	.
!	!	!	!	!	!	!	!LO:TX:t=P:problem=kreska pseudotaktowa	!	!LO:TX:t=P:problem=kreska pseudotaktowa	!	!
.	.	.	.	.	.	.	2d\	.	2b\	-li-	.
!LO:TX:t=P:problem=kreska pseudotaktowa	!	!	!	!	!	!	!	!	!	!	!
4F\	.	.	4F\	.	.	.	.	.	.	.	.
!LO:LB:g=original	!	!	!	!	!	!	!	!	!LO:LB:g=original	!	!
*	*	*	*	*	*lig	*	*	*	*	*	*
!	!	!	!	!	!	!	!	!	!LO:N:vis=4	!	!
4E\	6	.	4E\	.	1G	-rum	2.g\	ver-	2ee\	-cto-	.
4F\	.	.	4F\	.	.	.	.	.	.	.	.
!	!	!	!	!	!	!	!	!	!LO:N:vis=4	!	!
4E\	.	.	4E\	.	.	.	.	.	2b\	.	.
!	!	!	!	!	!	!	!LO:TX:t=P:problem=kreska pseudotaktowa	!	!	!	!
4D\	.	.	4D\	.	.	.	4f\	-ba	.	.	.
=41-	=41-	=41-	=41-	=41-	=41-	=41-	=41-	=41-	=41-	=41-	=41-
!	!	!	!	!	!LO:TX:t=P:problem=kreska pseudotaktowa	!	!	!	!	!	!
2C/	.	.	2C/	.	1A	.	2e\	de-	1ee	.	.
!	!	!	!LO:TX:t=P:problem=kreska pseudotaktowa	!	!	!	!	!	!	!	!
2D/	#	.	2D/	.	.	.	2f#X\	-li-	.	.	.
*	*	*	*	*	*Xlig	*	*	*	*	*	*
*	*	*	*	*	*lig	*	*	*	*	*	*
2E\	6	.	2E\	.	1c	me-	2g\	-cto-	2dd\	.	.
!LO:TX:t=P:problem=kreska pseudotaktowa	!	!	!LO:TX:t=P:problem=kreska pseudotaktowa	!	!	!	!	!	!	!	!
2F#X\	5	.	2F#X\	.	.	.	2a\	.	2cc\	.	.
!	!	!	!LO:LB:g=original	!	!	!	!	!	!	!	!
=42-	=42-	=42-	=42-	=42-	=42-	=42-	=42-	=42-	=42-	=42-	=42-
2G\	.	.	2G\	-rum	1B	.	4g\	.	2a\	.	.
.	.	.	.	.	.	.	4d\	-rum	.	.	.
!	!	!	!LO:TX:t=P:problem=kreska pseudotaktowa	!	!	!	!LO:TX:t=P::problem=kreska pseudotaktowa&colon;między nutą a kropką	!	!	!	!
2BB/	.	.	2BB/	me-	.	.	2.g\	me-	2b\	-rum	.
*	*	*	*	*	*Xlig	*	*	*	*	*	*
1C	6 5	.	1C	-o-	0A	-o-	.	.	2g/	me-	.
.	.	.	.	.	.	.	4fny\	.	.	.	.
!	!	!	!	!	!	!	!LO:TX:t=P:problem=kreska pseudotaktowa	!	!	!	!
.	.	.	.	.	.	.	2e\	-o-	1cc\	-o-	.
=43-	=43-	=43-	=43-	=43-	=43-	=43-	=43-	=43-	=43-	=43-	=43-
!	!	!	!	!	!	!	!LO:TX:t=P:problem=kreska pseudotaktowa	!	!	!	!
1D	.	.	1D	.	.	.	1d	.	.	.	.
.	.	.	.	.	.	.	.	.	1a	.	.
!LO:N:vis=0	!	!	!LO:N:vis=0	!	!LO:N:vis=0	!	!	!	!	!	!
!	!	!	!	!	!	!	!LO:MO:mod=1d;	!	!	!	!
1GG;	.	.	1GG;	-rum	1G;	-rum.	1dl;;	-rum.	.	.	.
!LO:TX:b:t=Domine ùt supra.:mod=	!	!	!LO:TX:b:t=Domine ut Supra:mod=	!	!LO:TX:b:t=Domine ùt supra.:mod=	!	!LO:TX:b:t=Domine \nut Supra:mod=	!	!LO:TX:b:t=Domine ut supra.:mod=	!	!
!	!	!	!	!	!	!	!	!	!LO:MO:mod=2b;	!	!
.	.	.	.	.	.	.	.	.	2bl;;\	-rum.	.
==	==	==	==	=	==	==	==	==	==	==	==
*-	*-	*-	*-	*-	*-	*-	*-	*-	*-	*-	*-
!!!system-decoration: [g1]s5
!!!RDF**kern: < = below
!!!RDF**kern: l = terminal long
!!!filter-modern: sic -sq | humtr -p | shed -e "s/-//B" | shed -e "s/^custos:/Xcustos:/I" | shed -e "s/^(\d+[\/\\]right)/$1yy/I; s/^(\d+[\/\\]left)/$1yy/I" | shed -k -e "s/r[a-gA-G]+/r/D" | shed -k -e "s/[<>]//g" | shed -e "s/TX(.*):t=P:/tx$1:t=P:/LG" | shed -k -e "s/LO:N:acc/LO:n:acc:/L" | modori -m
!!!ENC: Marta Lawrence
!!!END: 2021-03-25
!!!ENC: Andrzej Gręziak
!!!END: 2021-03-23
!!!YEC: Copyright 2022 Narodowy Instytut Fryderyka Chopina (https://polishscores.org)
!!!YEM: Licence CC BY 4.0 (https://creativecommons.org/licenses/by/4.0)
